X:1
T:Choose Ye Today
T:Choose Ye Today
T:William Church, Jr.
T:Eden Reeder Latta, 1881
T:Public Domain Courtesy of the Cyber Hymnal™
C:William Church, Jr.
Z:Public Domain
Z:Courtesy of the Cyber Hymnal™
%%score ( 1 2 ) ( 3 4 )
L:1/8
Q:1/4=95
M:6/8
K:G
V:1 treble 
V:2 treble 
V:3 bass 
V:4 bass 
V:1
 [DB][DB][DB] [Ec]2 [DB] | [DA][DG][DA] [DB]2 z | [DG][DG][DG] [EA]2 z | [DF][DE][DF] [DG]2 z | %4
w: 1.~Ser- vants of Sa- tan|or of the Lord,|Do- ing their will|ev- er are we;|
w: 2.~Trust not to Sa- tan,|vain is his word;|All of his paths|lead to dis- may;|
w: 3.~Lay up your trea- sure|not on the earth;|Naught ’twill a- vail|when life is past;|
w: 4.~Sin- ner, the Sav- ior|asks you to come;|Do not re- fuse—|do not de- lay;|
 [DB][DB][DB] [Ec]2 [DB] | [DA][DG][DA] [DB]2 z | [DG][DG][DG] [EA]2 z | [DF][DE][DF] [DG]2 z || %8
w: Death is ap- proach- ing—|which will ye serve?|Choose ye to- day|whose ye will be.|
w: Flee from his bond- age—|turn to the Lord;|Which will ye serve?|choose ye to- day.|
w: Like un- to Ma- ry,|choose ye the Lord;|Serve Him in truth|un- to the last.|
w: Je- sus has suf- fered—|suf- fered for you;|Give Him your hearts—|choose Him to- day.|
"^Refrain" [Gd][Gd][Gd] [Ge]2 [Gd] | [Fd][Fc][Fc] [Fc]2 z | [Fc][Fc][Fc] [Fd]2 [Fc] | %11
w: |||
w: |||
w: |||
w: |||
 [Ac][GB][GB] [GB]2 z | [FB][FB][FB] [GB]2 [GB] | [EA][EG][CE] [B,D]2 z | E[Ec][EA] [DG]2 [DF] | %15
w: ||||
w: ||||
w: ||||
w: ||||
 [DG]3- [DG]2 z |] %16
w: |
w: |
w: |
w: |
V:2
 x6 | x6 | x6 | x6 | x6 | x6 | x6 | x6 || x6 | x6 | x6 | x6 | x6 | x6 | E x5 | x6 |] %16
V:3
 G,G,G, G,2 G, | [D,F,][D,E,][D,F,] G,2 z | [B,,G,][B,,G,][B,,G,] [C,C]2 z | %3
w: Je- sus in- vites you|* * * now||
 [D,A,][D,G,][D,A,] [G,,B,]2 z | G,G,G, G,2 G, | [D,F,][D,E,][D,F,] G,2 z | %6
w: |to be His, Sa- tan|* * * would|
 [B,,G,][B,,G,][B,,G,] [C,C]2 z | [D,A,][D,G,][D,A,] [G,,B,]2 z || %8
w: ||
 [G,B,][G,B,][G,B,] [G,C]2 [G,B,] | [D,A,][D,A,][D,A,] [D,A,]2 z | %10
w: ev- er lead you as-|tray; Flee from his|
 [D,A,][D,A,][D,A,] [D,A,]2 [D,D] | [G,D][G,D][G,D] [G,D]2 z | [B,,^D][B,,D][B,,D] [E,E]2 [E,B,] | %13
w: power be- fore ’tis too|late, Turn to the|Lord to- day, * *|
 [C,C][C,G,][C,G,] [G,,G,]2 z | [C,G,][C,G,][C,C] [D,B,]2 [D,A,] | [G,,B,]3- [G,,B,]2 z |] %16
w: |||
V:4
 G,G,G, G,2 G, | x3 G,2 x | x6 | x6 | G,G,G, G,2 G, | x3 G,2 x | x6 | x6 || x6 | x6 | x6 | x6 | %12
 x6 | x6 | x6 | x6 |] %16

